assets/images/logo-creativeai.svg

<svg fill="none" height="145" viewBox="0 0 500 145" width="500" xmlns="http://www.w3.org/2000/svg" xmlns:xlink="http://www.w3.org/1999/xlink"><clipPath id="a"><path d="m0 0h500v144.404h-500z"/></clipPath><g clip-path="url(#a)"><path d="m437.388 92.9504v-41.4213h10.168v41.3613zm10.318-46.1674h-10.513v-9.0112h10.513zm-35.744 29.8121v-1.7422l-12.166 1.0664c-1.621.1502-2.282 1.0513-2.282 2.6733v3.5895c0 2.4331 2.538 3.7096 6.248 3.7096 4.731-.1872 8.415-4.1742 8.229-8.9061v-.3905zm0-12.015c.3-3.0655-1.899-5.8112-4.957-6.1875-.498-.0753-1.003-.0753-1.501 0-4.056 0-6.984 2.0274-6.984 5.8271h-10.137c.316-9.0112 7.644-13.697 17.527-13.697 9.881 0 16.113 5.0462 16.113 14.2228v20.2751h6.984v7.8698h-16.085v-6.398h-.33c-2.263 4.7751-7.206 7.6901-12.48 7.3592-6.883.3578-12.755-4.9234-13.126-11.8047v-.9462c0-6.6532 4.85-12.1651 13.516-12.8859l11.444-1.0063zm-35.865 28.3703h-11.7v-11.8497h11.7zm-48.406-25.2914h16.237v-1.5769c0-4.479-3.632-8.1101-8.11-8.1101-4.48 0-8.11 3.6311-8.11 8.1101zm8.11-17.0312c11.19 0 18.49 8.4105 18.49 19.7646v5.1213h-26.6v2.7486c-.039 2.0314.73 3.9956 2.138 5.4604 1.407 1.4647 3.341 2.3098 5.373 2.3491h.675c4.026.3562 7.58-2.6135 7.944-6.6382h10.139c-1.307 9.1613-8.2 14.4931-18.173 14.4931-11.76 0-18.727-8.726-18.727-21.8372 0-13.1113 7.509-21.5216 18.727-21.5216zm-42.938 30.9686 9.357-30.0374h10.693l-14.597 41.3013h-11.13l-14.507-41.3614h10.859l9.011 30.0374zm-39.137 11.354v-41.4213h10.137v41.3613zm10.287-46.1674h-10.513v-9.0112h10.513zm-30.338 38.1174h10.303v7.8548h-20.44v-33.4917h-8.321v-7.7344h8.2v-13.7872h10.137v13.7872h10.289v7.7344h-10.289zm-37.922-8.4555v-1.592l-12.165 1.0664c-1.622.1502-2.283 1.0513-2.283 2.6733v3.5895c0 2.4331 2.493 3.7096 6.007 3.7096 2.271-.0435 4.432-.9872 6.006-2.6238 1.574-1.6365 2.435-3.8314 2.39-6.102v-.5708zm0-12.0149c.308-3.0981-1.924-5.8712-5.017-6.2327-.498-.0601-1.001-.0601-1.501 0-4.055 0-6.984 2.0274-6.984 5.8422h-10.137c.3-9.0112 7.599-13.6969 17.527-13.6969s16.189 5.1213 16.189 14.3727v20.2753h6.953v7.8697h-16.039v-6.3679h-.314c-2.269 4.7639-7.201 7.6753-12.466 7.3592-6.883.3753-12.769-4.8929-13.157-11.7747v-.9762c0-6.6532 4.866-12.1651 13.516-12.8859l11.446-1.0063zm-60.165 3.1539h16.251v-1.5018c-.262-4.2958-3.822-7.6458-8.125-7.6458-4.304 0-7.864 3.35-8.126 7.6458zm8.11-17.0312c11.189 0 18.488 8.4256 18.488 19.7796v5.1215h-26.598v2.7334c-.059 4.2233 3.287 7.7099 7.51 7.8245h.616c1.938.1751 3.866-.4278 5.359-1.6758 1.493-1.2482 2.429-3.0388 2.6-4.9774h10.138c-1.322 9.1765-8.215 14.5081-18.188 14.5081-11.759 0-18.713-8.741-18.713-21.7771 0-13.0363 7.509-21.4617 18.713-21.4617zm-47.5787.9913h23.2187v7.9298h-12.976v33.4166h-10.1375zm-27.0336-.9761c8.6058 0 16.5206 4.5056 17.2865 14.9133h-10.1076c.1182-3.7825-2.8411-6.95-6.6231-7.0886-.3397-.0302-.6816-.0302-1.0213 0-4.0599-.1608-7.4818 2.9989-7.6446 7.0587v1.0512 11.4442c-.1837 1.96.4188 3.9125 1.6751 5.428 1.2563 1.5154 3.0634 2.4695 5.0233 2.6522h1.0063c4.5056 0 7.1489-1.8774 7.7646-7.3892h10.1677c-1.0063 10.3778-8.3204 15.304-17.4366 15.304-12.3153 0-18.7134-8.7258-18.7134-21.3867 0-13.727 7.2991-22.0023 18.6533-22.0023zm429.9543-50.5679h-499.04v144.404h499.04z" fill="#000"/></g></svg>

<svg width="500" height="145" viewBox="0 0 500 145" fill="none" xmlns="http://www.w3.org/2000/svg">
<g clip-path="url(#clip0)">
<path d="M437.388 92.9504V51.5291H447.556V92.8904L437.388 92.9504ZM447.706 46.783H437.193V37.7718H447.706V46.783ZM411.962 76.5951V74.8529L399.796 75.9193C398.175 76.0695 397.514 76.9706 397.514 78.5926V82.1821C397.514 84.6152 400.052 85.8917 403.762 85.8917C408.493 85.7045 412.177 81.7175 411.991 76.9856V76.5951H411.962ZM411.962 64.5801C412.262 61.5146 410.063 58.7689 407.005 58.3926C406.507 58.3173 406.002 58.3173 405.504 58.3926C401.448 58.3926 398.52 60.42 398.52 64.2197H388.383C388.699 55.2085 396.027 50.5227 405.91 50.5227C415.791 50.5227 422.023 55.5689 422.023 64.7455V85.0206H429.007V92.8904H412.922V86.4924H412.592C410.329 91.2675 405.386 94.1825 400.112 93.8516C393.229 94.2094 387.357 88.9282 386.986 82.0469V81.1007C386.986 74.4475 391.836 68.9356 400.502 68.2148L411.946 67.2085L411.962 64.5801ZM376.097 92.9504H364.397V81.1007H376.097V92.9504ZM327.691 67.659H343.928V66.0821C343.928 61.6031 340.296 57.972 335.818 57.972C331.338 57.972 327.708 61.6031 327.708 66.0821L327.691 67.659ZM335.801 50.6278C346.991 50.6278 354.291 59.0383 354.291 70.3924V75.5137H327.691V78.2623C327.652 80.2937 328.421 82.2579 329.829 83.7227C331.236 85.1874 333.17 86.0325 335.202 86.0718H335.877C339.903 86.428 343.457 83.4583 343.821 79.4336H353.96C352.653 88.5949 345.76 93.9267 335.787 93.9267C324.027 93.9267 317.06 85.2007 317.06 72.0895C317.06 58.9782 324.569 50.5679 335.787 50.5679L335.801 50.6278ZM292.863 81.5964L302.22 51.559H312.913L298.316 92.8603H287.186L272.679 51.4989H283.538L292.549 81.5363L292.863 81.5964ZM253.726 92.9504V51.5291H263.863V92.8904L253.726 92.9504ZM264.013 46.783H253.5V37.7718H264.013V46.783ZM233.675 84.9004H243.978V92.7552H223.538V59.2635H215.217V51.5291H223.417V37.7419H233.554V51.5291H243.843V59.2635H233.554L233.675 84.9004ZM195.753 76.4449V74.8529L183.588 75.9193C181.966 76.0695 181.305 76.9706 181.305 78.5926V82.1821C181.305 84.6152 183.798 85.8917 187.312 85.8917C189.583 85.8482 191.744 84.9045 193.318 83.2679C194.892 81.6314 195.753 79.4365 195.708 77.1659V76.5951L195.753 76.4449ZM195.753 64.43C196.061 61.3319 193.829 58.5588 190.736 58.1973C190.238 58.1372 189.735 58.1372 189.235 58.1973C185.18 58.1973 182.251 60.2247 182.251 64.0395H172.114C172.414 55.0283 179.713 50.3426 189.641 50.3426C199.569 50.3426 205.83 55.4639 205.83 64.7153V84.9906H212.783V92.8603H196.744V86.4924H196.43C194.161 91.2563 189.229 94.1677 183.964 93.8516C177.081 94.2269 171.195 88.9587 170.807 82.0769V81.1007C170.807 74.4475 175.673 68.9356 184.323 68.2148L195.769 67.2085L195.753 64.43ZM135.588 67.5839H151.839V66.0821C151.577 61.7863 148.017 58.4363 143.714 58.4363C139.41 58.4363 135.85 61.7863 135.588 66.0821V67.5839ZM143.698 50.5527C154.887 50.5527 162.186 58.9783 162.186 70.3323V75.4538H135.588V78.1872C135.529 82.4105 138.875 85.8971 143.098 86.0117H143.714C145.652 86.1868 147.58 85.5839 149.073 84.3359C150.566 83.0877 151.502 81.2971 151.673 79.3585H161.811C160.489 88.535 153.596 93.8666 143.623 93.8666C131.864 93.8666 124.91 85.1256 124.91 72.0895C124.91 59.0532 132.419 50.6278 143.623 50.6278L143.698 50.5527ZM96.1193 51.544H119.338V59.4738H106.362V92.8904H96.2245L96.1193 51.544ZM69.0857 50.5679C77.6915 50.5679 85.6063 55.0735 86.3722 65.4812H76.2646C76.3828 61.6987 73.4235 58.5312 69.6415 58.3926C69.3018 58.3624 68.9599 58.3624 68.6202 58.3926C64.5603 58.2318 61.1384 61.3915 60.9756 65.4513C60.9756 65.7967 60.9756 66.1572 60.9756 66.5025V77.9467C60.7919 79.9067 61.3944 81.8592 62.6507 83.3747C63.907 84.8901 65.7141 85.8442 67.674 86.0269H68.6803C73.1859 86.0269 75.8292 84.1495 76.4449 78.6377H86.6126C85.6063 89.0155 78.2922 93.9417 69.176 93.9417C56.8607 93.9417 50.4626 85.2159 50.4626 72.555C50.4626 58.828 57.7617 50.5527 69.1159 50.5527L69.0857 50.5679ZM499.04 0H0V144.404H499.04V0Z" fill="black"/>
</g>
<defs>
<clipPath id="clip0">
<rect width="500" height="144.404" fill="white"/>
</clipPath>
</defs>
</svg>
